X:1192
T:(untitled)
C:John Malchair's Third Collection of Tunes
F:https://www.vwml.org/record/Malchair/3619/p119
F:www.vwml.org/topics/historic-dance-and-tune-books/Malchair
Z:Eric Conrad Feb 2020
N:NB1 Repeats added.
N:NB2 MS has maximal beaming.  Beaming here is consistent with 2/4 meter.
N:   i.e. "| ABCD |" rebeamed here as "| AB CD |"
N:NB3 MS has this measure garbled.  This is my best guess.  Note stem up vs stem down.
N:NB4 MS has a correction.  Stem down notes in start of measure have been blotched out.
N:   [A "blotch" is a big dark inked are, here clearly deliberate.]
N:   Before blotch, stem down: "edde"  (full measure: "e2de & edde")
N:   After blotch, stem down: "x2de" <- as here.
N:NB5 Abc2midi v3.98 has trouble with the stem down notes in these measures.  Your mileage may vary.
W:an Irish tune noted down from the playing of [?] Oxford Militia Band Oxon March 1800.
M:2/4
L:1/8
K:C
P:A
|: "_NB1,2"d | e2 de | d2 dc | edde | "_NB3,5"d3d & x3d/d/ | \
    egag | fedc | (de).d.e | d3 :|
|: d | egga | g3e/f/ | eaab | a3g/a/ | c'gag | fedc | \
    "_NB4,5"e2de & x2de | d3c | edde | d3 :|


